tipitek/img/manager-icon-6.svg

<svg width="60" height="61" viewBox="0 0 60 61" fill="none" xmlns="http://www.w3.org/2000/svg">
<rect y="0.994019" width="60" height="59.997" rx="13.0472" fill="#E6AA12" fill-opacity="0.1"/>
<g clip-path="url(#clip0_437_1108)">
<path d="M16.8203 48.7177H43.1884M31.55 17.5321C31.55 17.5321 30.9286 16.8872 30.092 16.8872C29.2554 16.8872 28.646 17.4962 28.646 18.1233C28.646 18.7503 29.4347 19.2519 30.4326 19.5146C31.4305 19.7774 31.6417 20.2929 31.6417 20.8423C31.6417 21.3916 31.1557 22.1003 30.0164 22.1003C28.8771 22.1003 28.3672 21.2722 28.3672 21.2722M30.0044 15.9197V16.6204M30.0044 22.3671V23.0678M30.0044 26.0356V41.3593M30.1956 37.2163C31.3166 37.2163 32.4205 36.9416 33.4105 36.4161C34.4005 35.8907 35.2464 35.1306 35.8741 34.2024M34.2078 28.2863C34.2141 28.1615 34.1735 28.0388 34.094 27.9423C34.0146 27.8458 33.9019 27.7824 33.7781 27.7645C32.9823 27.6514 32.1436 27.8597 31.474 28.4103C30.8044 28.9609 30.4383 29.7434 30.3962 30.5455C30.3899 30.6703 30.4305 30.793 30.51 30.8895C30.5895 30.986 30.7021 31.0494 30.8259 31.0673C31.6217 31.1804 32.4604 30.9721 33.13 30.4215C33.7995 29.8709 34.1656 29.0884 34.2078 28.2863Z" stroke="#E6AA12" stroke-width="1.07028" stroke-miterlimit="10" stroke-linecap="round" stroke-linejoin="round"/>
<path d="M29.8113 33.086C28.6904 33.086 27.5865 32.8113 26.5965 32.2858C25.6065 31.7604 24.7605 31.0003 24.1328 30.0721M34.2184 36.1909C33.9374 36.2356 33.7355 36.4891 33.7551 36.7728C33.816 37.6546 34.2329 38.5089 34.9795 39.1025C35.7262 39.6962 36.6529 39.9103 37.5264 39.7715C37.8074 39.7268 38.0093 39.4732 37.9897 39.1896C37.9288 38.3078 37.5119 37.4535 36.7652 36.8598C36.0186 36.2661 35.0919 36.052 34.2184 36.1909ZM38.2135 29.6631C38.0963 29.404 37.7983 29.2762 37.5297 29.37C36.6946 29.6612 35.9799 30.2883 35.6038 31.1647C35.2276 32.041 35.2653 32.9907 35.6297 33.7961C35.7469 34.0553 36.0449 34.183 36.3135 34.0893C37.1486 33.798 37.8633 33.1709 38.2394 32.2946C38.6156 31.4182 38.5779 30.4685 38.2135 29.6631Z" stroke="#E6AA12" stroke-width="1.07028" stroke-miterlimit="10" stroke-linecap="round" stroke-linejoin="round"/>
<path d="M36.0997 18.2455C35.5213 15.4052 33.0079 13.2678 29.9949 13.2678C26.5541 13.2678 23.7648 16.0552 23.7648 19.4938C23.7648 22.9323 26.5541 25.7197 29.9949 25.7197C33.0079 25.7197 35.5213 23.5823 36.0997 20.742M34.4552 42.075C33.9928 41.3333 33.1696 40.8339 32.2219 40.8339C31.6125 40.833 31.0219 41.0447 30.552 41.4324C30.3954 41.5621 30.1984 41.6331 29.995 41.6331C29.7915 41.6331 29.5945 41.5621 29.4379 41.4324C28.968 41.0447 28.3774 40.833 27.768 40.8339C26.4699 40.8339 25.4059 41.7698 25.1819 42.9815C25.1067 43.3883 24.7477 43.6855 24.3338 43.6807C23.068 43.6657 21.9485 44.5847 21.7207 45.8327C21.6469 46.2372 21.2893 46.5357 20.8779 46.5306C19.6089 46.5148 18.4715 47.4345 18.2559 48.7177H41.7341C41.5185 47.4351 40.3815 46.5147 39.1123 46.5305C38.7011 46.5356 38.3433 46.2372 38.2697 45.8329C38.0824 44.8036 37.2885 44.0008 36.3081 43.7575M25.7791 32.0609C26.0601 32.1056 26.262 32.3592 26.2424 32.6428C26.1815 33.5246 25.7646 34.3789 25.0179 34.9726C24.2713 35.5662 23.3446 35.7804 22.4711 35.6415C22.1901 35.5968 21.9882 35.3433 22.0078 35.0596C22.0687 34.1778 22.4856 33.3235 23.2323 32.7299C23.9789 32.1362 24.9056 31.9221 25.7791 32.0609ZM21.784 25.5331C21.9012 25.274 22.1992 25.1463 22.4678 25.24C23.3029 25.5312 24.0175 26.1583 24.3937 27.0347C24.7698 27.911 24.7322 28.8607 24.3678 29.6661C24.2506 29.9253 23.9526 30.053 23.6839 29.9593C22.8488 29.6681 22.1342 29.0409 21.7581 28.1646C21.3819 27.2883 21.4197 26.3385 21.784 25.5331Z" stroke="#E6AA12" stroke-width="1.07028" stroke-miterlimit="10" stroke-linecap="round" stroke-linejoin="round"/>
</g>
<defs>
<clipPath id="clip0_437_1108">
<rect width="36.5441" height="36.5199" fill="white" transform="translate(11.7285 12.7325)"/>
</clipPath>
</defs>
</svg>

<svg width="60" height="61" fill="none" xmlns="http://www.w3.org/2000/svg"><rect y=".994" width="60" height="59.997" rx="13.047" fill="#E6AA12" fill-opacity=".1"/><g clip-path="url(#clip0_437_1108)" stroke="#E6AA12" stroke-width="1.07" stroke-miterlimit="10" stroke-linecap="round" stroke-linejoin="round"><path d="M16.82 48.718h26.368M31.55 17.532s-.621-.645-1.458-.645-1.446.61-1.446 1.236c0 .627.789 1.129 1.787 1.392.997.262 1.209.778 1.209 1.327 0 .55-.486 1.258-1.626 1.258-1.139 0-1.649-.828-1.649-.828m1.637-5.352v.7m0 5.747v.7m0 2.969v15.323m.192-4.143a6.857 6.857 0 0 0 5.678-3.014m-1.666-5.916a.501.501 0 0 0-.43-.521 2.96 2.96 0 0 0-2.304.645 2.957 2.957 0 0 0-1.078 2.136.501.501 0 0 0 .43.521 2.96 2.96 0 0 0 2.304-.645 2.957 2.957 0 0 0 1.078-2.136z"/><path d="M29.811 33.086a6.857 6.857 0 0 1-5.678-3.014m10.085 6.119a.552.552 0 0 0-.463.582c.061.882.478 1.736 1.224 2.33a3.259 3.259 0 0 0 2.547.669.552.552 0 0 0 .464-.582 3.254 3.254 0 0 0-1.225-2.33 3.258 3.258 0 0 0-2.547-.67zm3.995-6.528a.552.552 0 0 0-.683-.293 3.255 3.255 0 0 0-1.926 1.795 3.252 3.252 0 0 0 .026 2.631c.117.26.415.387.683.293a3.256 3.256 0 0 0 1.926-1.794 3.252 3.252 0 0 0-.025-2.632z"/><path d="M36.1 18.245a6.231 6.231 0 0 0-6.105-4.977 6.228 6.228 0 0 0-6.23 6.226 6.228 6.228 0 0 0 6.23 6.226 6.231 6.231 0 0 0 6.105-4.978m-1.645 21.333a2.626 2.626 0 0 0-3.903-.643.873.873 0 0 1-1.114 0 2.63 2.63 0 0 0-4.256 1.55.855.855 0 0 1-.848.699 2.643 2.643 0 0 0-2.613 2.152.851.851 0 0 1-.843.698 2.637 2.637 0 0 0-2.622 2.187h23.478a2.638 2.638 0 0 0-2.622-2.188.851.851 0 0 1-.842-.697 2.644 2.644 0 0 0-1.962-2.075M25.78 32.06a.552.552 0 0 1 .463.582 3.254 3.254 0 0 1-1.224 2.33 3.258 3.258 0 0 1-2.547.669.552.552 0 0 1-.463-.582 3.253 3.253 0 0 1 1.224-2.33 3.258 3.258 0 0 1 2.547-.67zm-3.995-6.528a.553.553 0 0 1 .684-.293c.835.291 1.55.918 1.926 1.795a3.252 3.252 0 0 1-.026 2.631.553.553 0 0 1-.684.293 3.255 3.255 0 0 1-1.926-1.794 3.253 3.253 0 0 1 .026-2.632z"/></g><defs><clipPath id="clip0_437_1108"><path fill="#fff" transform="translate(11.729 12.732)" d="M0 0h36.544v36.52H0z"/></clipPath></defs></svg>
